icons/3_Generic/Monero.svg

<svg width="1024" height="1024" viewBox="0 0 1024 1024" fill="none" xmlns="http://www.w3.org/2000/svg">
<g clip-path="url(#clip0_3_410)">
<path d="M512 1024C794.77 1024 1024 794.77 1024 512C1024 229.23 794.77 0 512 0C229.23 0 0 229.23 0 512C0 794.77 229.23 1024 512 1024Z" fill="#8C72BD"/>
<path d="M512 224C352.94 224 224 352.94 224 512C224 671.06 352.94 800 512 800C671.06 800 800 671.06 800 512C800 352.94 671.06 224 512 224ZM332.34 332.34C380.33 284.35 444.14 257.92 512 257.92C579.86 257.92 643.67 284.35 691.66 332.34C739.65 380.33 766.08 444.14 766.08 512C766.08 534.38 763.19 556.31 757.62 577.38H634.02V459.12C634.02 455.749 633.016 452.454 631.136 449.656C629.255 446.858 626.583 444.684 623.462 443.412C620.34 442.139 616.91 441.825 613.609 442.511C610.308 443.196 607.287 444.85 604.93 447.26L511.94 542.42L418.01 447.2C413.18 442.3 405.86 440.8 399.5 443.42C396.387 444.696 393.725 446.869 391.851 449.664C389.978 452.458 388.979 455.746 388.98 459.11V577.37H266.39C260.82 556.3 257.93 534.37 257.93 511.99C257.93 444.12 284.36 380.32 332.35 332.33L332.34 332.34ZM691.67 691.67C643.68 739.66 579.87 766.09 512.01 766.09C444.15 766.09 380.34 739.66 332.35 691.67C308.89 668.21 290.59 640.96 278.01 611.31H405.95C415.32 611.31 422.91 603.72 422.91 594.35V500.47L499.94 578.55C503.13 581.78 507.48 583.6 512.01 583.6H512.05C516.6 583.59 520.96 581.75 524.14 578.49L600.11 500.74V594.34C600.11 603.71 607.7 611.3 617.07 611.3H746.02C733.43 640.95 715.14 668.2 691.68 691.66L691.67 691.67Z" fill="white"/>
</g>
<defs>
<clipPath id="clip0_3_410">
<rect width="1024" height="1024" fill="white"/>
</clipPath>
</defs>
</svg>

<svg width="1024" height="1024" fill="none" xmlns="http://www.w3.org/2000/svg"><g clip-path="url(#a)"><path d="M512 1024c282.77 0 512-229.23 512-512S794.77 0 512 0 0 229.23 0 512s229.23 512 512 512Z" fill="#8C72BD"/><path d="M512 224c-159.06 0-288 128.94-288 288s128.94 288 288 288 288-128.94 288-288-128.94-288-288-288ZM332.34 332.34c47.99-47.99 111.8-74.42 179.66-74.42s131.67 26.43 179.66 74.42c47.99 47.99 74.42 111.8 74.42 179.66 0 22.38-2.89 44.31-8.46 65.38h-123.6V459.12a16.961 16.961 0 0 0-29.09-11.86l-92.99 95.16-93.93-95.22c-4.83-4.9-12.15-6.4-18.51-3.78a16.946 16.946 0 0 0-10.52 15.69v118.26H266.39c-5.57-21.07-8.46-43-8.46-65.38 0-67.87 26.43-131.67 74.42-179.66l-.01.01Zm359.33 359.33c-47.99 47.99-111.8 74.42-179.66 74.42s-131.67-26.43-179.66-74.42c-23.46-23.46-41.76-50.71-54.34-80.36h127.94c9.37 0 16.96-7.59 16.96-16.96v-93.88l77.03 78.08c3.19 3.23 7.54 5.05 12.07 5.05h.04c4.55-.01 8.91-1.85 12.09-5.11l75.97-77.75v93.6c0 9.37 7.59 16.96 16.96 16.96h128.95c-12.59 29.65-30.88 56.9-54.34 80.36l-.01.01Z" fill="#fff"/></g><defs><clipPath id="a"><path fill="#fff" d="M0 0h1024v1024H0z"/></clipPath></defs></svg>
